X: 27299
T: Miss Wiseman's Fancy
R: jig
M: 6/8
K: Gmajor
D|DGG GBG|AFD (3D/E/F/GA|fdf ecA|BGd AFD|
DGG GBG|AFD (3D/E/F/GA|fed ecA|AGG G2:|
|:B/d/|~g2g GFG|~f2f FGA|fed e/f/ed|cAG FED|
~g2g GFG|~f2f FGA|fed ecA|AGG G2:|
|:d/c/|BGd BGd|AFD (3D/E/F/GA|f2d e2d|cAG FDC|
DGG BGd|AFD (3D/E/F/GA|fed ecA|AGG G2:|

